; generated by PrusaSlicer 2.3.1+linux-x64 on 2022-01-27 at 01:42:41 UTC

; 

; external perimeters extrusion width = 1.00mm
; perimeters extrusion width = 1.00mm
; infill extrusion width = 0.90mm
; solid infill extrusion width = 0.90mm
; top infill extrusion width = 0.80mm
; first layer extrusion width = 0.90mm

M73 P0 R149
M73 Q0 S149
M201 X1000 Y1000 Z200 E5000 ; sets maximum accelerations, mm/sec^2
M203 X200 Y200 Z12 E120 ; sets maximum feedrates, mm/sec
M204 P1250 R1250 T1250 ; sets acceleration (P, T) and retract acceleration (R), mm/sec^2
M205 X8.00 Y8.00 Z0.40 E4.50 ; sets the jerk limits, mm/sec
M205 S0 T0 ; sets the minimum extruding and travel feed rate, mm/sec
M107
;TYPE:Custom
M862.3 P "MK3S" ; printer model check
M115 U3.10.0 ; tell printer latest fw version
G90 ; use absolute coordinates
M83 ; extruder relative mode
M104 S225 ; set extruder temp
M140 S60 ; set bed temp
M190 S60 ; wait for bed temp
M109 S225 ; wait for extruder temp
G28 W ; home all without mesh bed level
G80 ; mesh bed leveling
G1 Y-3.0 F1000.0 ; go outside print area
G92 E0.0
G1 X60.0 E9.0 F1000.0 ; intro line
G1 X100.0 E12.5 F1000.0 ; intro line
G92 E0.0
M221 S95
G21 ; set units to millimeters
G90 ; use absolute coordinates
M83 ; use relative distances for extrusion
M900 K0.01 ; Filament gcode LA 1.5
; ; Filament gcode LA 1.0
;LAYER_CHANGE
;Z:0.3
;HEIGHT:0.3
;BEFORE_LAYER_CHANGE
G92 E0.0
;0.3


G1 E-1.00000 F2100.000
G1 Z0.400 F10800.000
;AFTER_LAYER_CHANGE
;0.3
G1 X95.193 Y83.344
G1 Z0.300
G1 E1.00000 F2100.000
M204 S1000
;TYPE:Skirt
;WIDTH:0.9
G1 F1200.000
G1 X100.347 Y77.620 E0.80279
G1 X106.578 Y73.093 E0.80276
G1 X113.596 Y69.966 E0.80075
G1 X121.134 Y68.360 E0.80326
G1 X128.455 Y68.338 E0.76299
G1 X129.219 Y68.416 E0.08005
G1 X136.343 Y69.947 E0.75946
M73 P0 R148
G1 X143.064 Y72.911 E0.76550
G1 X143.723 Y73.286 E0.07904
G1 X149.341 Y77.367 E0.72375
G1 X149.937 Y77.904 E0.08358
G1 X154.818 Y83.360 E0.76295
G1 X158.673 Y90.050 E0.80479
G1 X161.043 Y97.363 E0.80125
G1 X161.825 Y104.628 E0.76150
G1 X161.825 Y105.377 E0.07804
G1 X161.034 Y112.679 E0.76551
G1 X158.650 Y120.003 E0.80276
G1 X154.807 Y126.656 E0.80072
G1 X149.639 Y132.393 E0.80480
G1 X143.422 Y136.907 E0.80075
G1 X136.385 Y140.040 E0.80276
G1 X128.851 Y141.641 E0.80276
G1 X121.168 Y141.643 E0.80075
G1 X113.615 Y140.040 E0.80474
G1 X106.595 Y136.917 E0.80076
G1 X100.358 Y132.390 E0.80327
G1 X95.433 Y126.954 E0.76449
G1 X94.994 Y126.353 E0.07754
G1 X91.524 Y120.343 E0.72326
G1 X91.198 Y119.611 E0.08357
G1 X88.954 Y112.622 E0.76498
G1 X88.175 Y105.372 E0.76000
G1 X88.175 Y104.623 E0.07804
G1 X88.966 Y97.321 E0.76551
G1 X91.350 Y89.997 E0.80276
G1 X95.133 Y83.448 E0.78821
; printing object bottle-holder-generic-24oz.stl id:0 copy 0
;WIPE_START
G1 F8640.000
G1 X97.876 Y80.382 E-0.95000
;WIPE_END
G1 E-0.05000 F2100.000
G1 Z0.700 F10800.000
G1 X101.137 Y87.662
G1 Z0.300
G1 E1.00000 F2100.000
;TYPE:Perimeter
G1 F1200.000
G1 X105.263 Y83.080 E0.64268
G1 X110.252 Y79.455 E0.64269
G1 X115.885 Y76.947 E0.64269
G1 X121.917 Y75.665 E0.64268
G1 X128.083 Y75.665 E0.64269
G1 X134.115 Y76.947 E0.64268
G1 X139.748 Y79.455 E0.64268
G1 X144.737 Y83.080 E0.64269
G1 X148.863 Y87.662 E0.64267
G1 X151.946 Y93.003 E0.64269
G1 X153.852 Y98.868 E0.64272
G1 X154.496 Y105.000 E0.64265
M73 Q0 S148
G1 X153.852 Y111.133 E0.64268
G1 X151.946 Y116.997 E0.64269
G1 X148.863 Y122.338 E0.64269
G1 X144.737 Y126.920 E0.64268
G1 X139.748 Y130.545 E0.64269
G1 X134.115 Y133.053 E0.64268
G1 X128.083 Y134.335 E0.64268
G1 X121.917 Y134.335 E0.64269
G1 X115.885 Y133.053 E0.64268
G1 X110.252 Y130.545 E0.64268
G1 X105.263 Y126.920 E0.64269
G1 X101.137 Y122.338 E0.64267
G1 X98.054 Y116.997 E0.64269
G1 X96.148 Y111.132 E0.64272
G1 X95.504 Y105.000 E0.64265
G1 X96.148 Y98.867 E0.64268
G1 X98.054 Y93.003 E0.64269
G1 X101.077 Y87.766 E0.63018
G1 X101.801 Y88.184 F10800.000
;TYPE:External perimeter
G1 F1200.000
G1 X105.825 Y83.704 E0.62765
G1 X110.672 Y80.183 E0.62439
G1 X116.145 Y77.746 E0.62438
G1 X122.005 Y76.501 E0.62437
G1 X127.995 Y76.501 E0.62438
G1 X133.855 Y77.746 E0.62437
G1 X139.328 Y80.183 E0.62438
G1 X144.175 Y83.704 E0.62438
G1 X148.183 Y88.156 E0.62437
G1 X151.179 Y93.344 E0.62438
G1 X153.030 Y99.042 E0.62441
G1 X153.656 Y105.000 E0.62434
G1 X153.030 Y110.958 E0.62438
G1 X151.179 Y116.656 E0.62438
G1 X148.183 Y121.844 E0.62438
G1 X144.175 Y126.296 E0.62437
G1 X139.328 Y129.817 E0.62439
G1 X133.855 Y132.254 E0.62437
G1 X127.995 Y133.499 E0.62438
G1 X122.005 Y133.499 E0.62438
G1 X116.145 Y132.254 E0.62437
G1 X110.672 Y129.817 E0.62438
G1 X105.825 Y126.296 E0.62438
G1 X101.817 Y121.844 E0.62437
G1 X98.821 Y116.656 E0.62438
G1 X96.970 Y110.958 E0.62441
G1 X96.344 Y105.000 E0.62434
G1 X96.970 Y99.042 E0.62438
G1 X98.821 Y93.344 E0.62438
G1 X101.741 Y88.288 E0.60852
G1 X101.475 Y87.454 F10800.000
;WIPE_START
G1 F8640.000
G1 X104.478 Y85.216 E-0.95000
;WIPE_END
G1 E-0.05000 F2100.000
G1 Z0.700 F10800.000
G1 X99.509 Y86.480
G1 Z0.300
G1 E1.00000 F2100.000
;TYPE:Perimeter
G1 F1200.000
G1 X103.917 Y81.585 E0.68653
G1 X109.246 Y77.713 E0.68651
G1 X115.263 Y75.034 E0.68652
G1 X121.706 Y73.664 E0.68651
G1 X128.300 Y73.666 E0.68719
G1 X134.737 Y75.034 E0.68584
G1 X140.754 Y77.713 E0.68652
G1 X146.083 Y81.585 E0.68652
G1 X150.491 Y86.480 E0.68652
G1 X153.784 Y92.184 E0.68652
G1 X155.820 Y98.449 E0.68651
G1 X156.508 Y105.000 E0.68652
G1 X155.820 Y111.551 E0.68652
G1 X153.784 Y117.816 E0.68652
G1 X150.491 Y123.520 E0.68651
G1 X146.083 Y128.415 E0.68653
G1 X140.754 Y132.287 E0.68651
G1 X134.737 Y134.966 E0.68652
G1 X128.294 Y136.336 E0.68652
G1 X121.706 Y136.336 E0.68652
G1 X115.263 Y134.966 E0.68651
G1 X109.246 Y132.287 E0.68652
G1 X103.917 Y128.415 E0.68652
G1 X99.509 Y123.520 E0.68652
G1 X96.216 Y117.816 E0.68652
G1 X94.180 Y111.551 E0.68651
G1 X93.492 Y105.000 E0.68652
G1 X94.180 Y98.449 E0.68652
G1 X96.216 Y92.184 E0.68652
G1 X99.449 Y86.584 E0.67400
G1 X98.726 Y86.166 F10800.000
;TYPE:External perimeter
G1 F1200.000
G1 X98.830 Y85.986 E0.02166
G1 X103.355 Y80.960 E0.70484
G1 X108.826 Y76.986 E0.70481
G1 X115.004 Y74.235 E0.70483
G1 X121.619 Y72.829 E0.70482
G1 X128.388 Y72.830 E0.70550
G1 X134.996 Y74.235 E0.70413
G1 X141.174 Y76.985 E0.70482
G1 X146.645 Y80.960 E0.70483
G1 X151.170 Y85.986 E0.70482
G1 X154.552 Y91.843 E0.70483
G1 X156.642 Y98.274 E0.70482
G1 X157.348 Y105.000 E0.70482
G1 X156.642 Y111.726 E0.70483
G1 X154.552 Y118.157 E0.70483
G1 X151.170 Y124.014 E0.70481
G1 X146.645 Y129.040 E0.70484
G1 X141.174 Y133.014 E0.70481
G1 X134.996 Y135.765 E0.70483
G1 X128.381 Y137.171 E0.70483
G1 X121.619 Y137.171 E0.70483
G1 X115.004 Y135.765 E0.70482
G1 X108.826 Y133.015 E0.70482
G1 X103.355 Y129.040 E0.70483
G1 X98.830 Y124.014 E0.70482
G1 X95.448 Y118.157 E0.70483
G1 X93.358 Y111.726 E0.70482
G1 X92.652 Y105.000 E0.70482
G1 X93.358 Y98.274 E0.70483
G1 X95.448 Y91.843 E0.70483
G1 X98.666 Y86.270 E0.67065
G1 X98.933 Y86.159 F10800.000
;WIPE_START
G1 F8640.000
G1 X98.830 Y85.986 E-0.07570
G1 X101.363 Y83.172 E-0.87430
;WIPE_END
G1 E-0.05000 F2100.000
G1 Z0.700 F10800.000
G1 X150.395 Y86.733
G1 Z0.300
G1 E1.00000 F2100.000
;TYPE:Solid infill
;WIDTH:0.910251
G1 F1200.000
G1 X145.672 Y82.009 E0.70477
G1 X141.297 Y78.831 E0.57044
G1 X152.029 Y89.563 E1.60123
;WIPE_START
G1 F8640.000
G1 X149.120 Y86.654 E-0.95000
;WIPE_END
G1 E-0.05000 F2100.000
G1 Z0.700 F10800.000
G1 X149.339 Y88.069
G1 Z0.300
G1 E1.00000 F2100.000
G1 F1200.000
G1 X152.636 Y91.366 E0.49196
G1 X153.247 Y92.424 E0.12887
G1 X153.607 Y93.533 E0.12310
G1 X152.000 Y91.926 E0.23979
G1 X152.484 Y92.764 E0.10200
G1 X152.889 Y94.011 E0.13842
G1 X154.183 Y95.305 E0.19308
G1 X154.759 Y97.077 E0.19657
G1 X153.465 Y95.783 E0.19309
G1 X154.041 Y97.555 E0.19656
G1 X155.266 Y98.781 E0.18290
G1 X155.407 Y100.118 E0.14180
G1 X154.473 Y99.184 E0.13929
G1 X154.614 Y100.521 E0.14181
G1 X155.547 Y101.455 E0.13929
G1 X155.688 Y102.791 E0.14180
G1 X154.754 Y101.858 E0.13929
G1 X154.895 Y103.195 E0.14181
G1 X155.828 Y104.128 E0.13929
G1 X155.920 Y105.000 E0.09249
G1 X155.880 Y105.376 E0.03993
G1 X155.035 Y104.531 E0.12609
G1 X155.085 Y105.000 E0.04972
G1 X155.011 Y105.703 E0.07457
G1 X155.767 Y106.459 E0.11279
G1 X155.653 Y107.541 E0.11483
G1 X154.897 Y106.785 E0.11279
G1 X154.783 Y107.868 E0.11483
G1 X155.539 Y108.624 E0.11279
G1 X155.425 Y109.706 E0.11483
G1 X154.669 Y108.950 E0.11279
G1 X154.556 Y110.033 E0.11483
G1 X155.312 Y110.789 E0.11280
G1 X155.244 Y111.429 E0.06788
G1 X155.124 Y111.798 E0.04095
G1 X154.442 Y111.115 E0.10184
G1 X154.427 Y111.255 E0.01482
G1 X154.172 Y112.041 E0.08723
G1 X154.831 Y112.701 E0.09838
G1 X154.538 Y113.604 E0.10016
G1 X153.878 Y112.944 E0.09838
G1 X153.585 Y113.847 E0.10016
G1 X154.244 Y114.506 E0.09838
G1 X153.951 Y115.409 E0.10016
G1 X153.292 Y114.750 E0.09838
G1 X152.998 Y115.653 E0.10016
G1 X153.658 Y116.312 E0.09838
G1 X153.364 Y117.215 E0.10016
G1 X152.705 Y116.556 E0.09838
G1 X152.484 Y117.237 E0.07553
G1 X152.376 Y117.423 E0.02272
G1 X152.984 Y118.031 E0.09075
G1 X152.546 Y118.790 E0.09239
G1 X151.938 Y118.181 E0.09075
G1 X151.500 Y118.940 E0.09239
G1 X152.108 Y119.548 E0.09075
G1 X151.671 Y120.306 E0.09239
G1 X151.062 Y119.698 E0.09075
G1 X150.625 Y120.457 E0.09239
G1 X151.233 Y121.065 E0.09075
G1 X150.795 Y121.823 E0.09239
G1 X150.187 Y121.215 E0.09075
G1 X149.749 Y121.973 E0.09239
G1 X150.357 Y122.582 E0.09075
G1 X150.015 Y123.174 E0.07220
G1 X149.891 Y123.312 E0.01953
G1 X149.303 Y122.723 E0.08778
G1 X148.736 Y123.353 E0.08936
G1 X149.324 Y123.941 E0.08778
G1 X148.758 Y124.571 E0.08936
G1 X148.169 Y123.982 E0.08778
G1 X147.602 Y124.612 E0.08936
G1 X148.191 Y125.200 E0.08778
G1 X147.624 Y125.830 E0.08936
G1 X147.036 Y125.241 E0.08778
G1 X146.469 Y125.871 E0.08936
G1 X147.057 Y126.459 E0.08778
G1 X146.490 Y127.089 E0.08936
G1 X145.902 Y126.500 E0.08778
G1 X145.335 Y127.130 E0.08936
G1 X145.924 Y127.718 E0.08778
G1 X145.690 Y127.978 E0.03691
G1 X145.283 Y128.274 E0.05303
G1 X144.688 Y127.679 E0.08876
G1 X143.995 Y128.182 E0.09035
G1 X144.590 Y128.777 E0.08875
G1 X143.897 Y129.280 E0.09035
G1 X143.302 Y128.685 E0.08875
G1 X142.609 Y129.189 E0.09035
G1 X143.204 Y129.784 E0.08875
G1 X142.511 Y130.287 E0.09035
G1 X141.917 Y129.692 E0.08875
G1 X141.224 Y130.196 E0.09035
G1 X141.819 Y130.790 E0.08875
G1 X141.126 Y131.294 E0.09035
G1 X140.531 Y130.699 E0.08875
G1 X140.042 Y131.054 E0.06372
G1 X139.798 Y131.163 E0.02817
G1 X140.428 Y131.792 E0.09389
G1 X139.600 Y132.160 E0.09559
G1 X138.971 Y131.531 E0.09389
G1 X138.143 Y131.900 E0.09559
G1 X138.772 Y132.529 E0.09389
G1 X137.944 Y132.898 E0.09559
G1 X137.315 Y132.268 E0.09389
G1 X136.487 Y132.637 E0.09559
G1 X137.117 Y133.266 E0.09390
G1 X136.289 Y133.635 E0.09559
G1 X135.660 Y133.005 E0.09390
G1 X134.832 Y133.374 E0.09559
G1 X135.461 Y134.003 E0.09390
G1 X134.634 Y134.372 E0.09559
G1 X133.948 Y133.686 E0.10227
G1 X132.962 Y133.896 E0.10641
G1 X133.662 Y134.596 E0.10453
G1 X132.676 Y134.806 E0.10641
G1 X131.975 Y134.106 E0.10452
G1 X130.989 Y134.315 E0.10641
G1 X131.689 Y135.016 E0.10452
G1 X130.703 Y135.226 E0.10641
G1 X130.002 Y134.525 E0.10452
G1 X129.015 Y134.735 E0.10641
G1 X129.716 Y135.435 E0.10452
G1 X128.729 Y135.645 E0.10641
G1 X128.004 Y134.920 E0.10819
G1 X126.808 Y134.920 E0.12621
G1 X127.639 Y135.751 E0.12396
G1 X126.443 Y135.751 E0.12621
G1 X125.612 Y134.920 E0.12396
G1 X124.416 Y134.920 E0.12621
G1 X125.246 Y135.751 E0.12396
G1 X124.050 Y135.751 E0.12621
G1 X123.219 Y134.920 E0.12396
G1 X122.023 Y134.920 E0.12621
G1 X122.854 Y135.751 E0.12396
G1 X121.768 Y135.751 E0.11457
G1 X121.628 Y135.721 E0.01510
G1 X120.549 Y134.642 E0.16094
G1 X119.030 Y134.319 E0.16385
G1 X120.109 Y135.398 E0.16094
G1 X118.590 Y135.075 E0.16385
G1 X117.511 Y133.996 E0.16095
G1 X115.992 Y133.673 E0.16385
G1 X117.071 Y134.752 E0.16095
G1 X115.551 Y134.429 E0.16385
G1 X113.956 Y132.834 E0.23797
G1 X111.800 Y131.874 E0.24902
G1 X113.440 Y133.514 E0.24461
G1 X111.283 Y132.554 E0.24903
G1 X107.621 Y128.892 E0.54638
;WIPE_START
M73 P0 R147
G1 F8640.000
G1 X110.531 Y131.801 E-0.95000
;WIPE_END
G1 E-0.05000 F2100.000
G1 Z0.700 F10800.000
G1 X142.378 Y81.108
G1 Z0.300
G1 E1.00000 F2100.000
G1 F1200.000
G1 X138.716 Y77.446 E0.54634
G1 X136.560 Y76.486 E0.24903
G1 X138.200 Y78.126 E0.24461
G1 X136.043 Y77.166 E0.24902
G1 X134.448 Y75.571 E0.23796
G1 X132.929 Y75.248 E0.16385
G1 X134.008 Y76.327 E0.16095
G1 X132.489 Y76.004 E0.16385
G1 X131.410 Y74.925 E0.16095
G1 X129.891 Y74.602 E0.16385
G1 X130.970 Y75.681 E0.16094
G1 X129.451 Y75.358 E0.16385
G1 X128.372 Y74.279 E0.16094
G1 X128.238 Y74.251 E0.01441
G1 X127.147 Y74.250 E0.11513
G1 X127.977 Y75.080 E0.12379
G1 X126.781 Y75.080 E0.12621
G1 X125.951 Y74.250 E0.12383
G1 X124.754 Y74.250 E0.12623
G1 X125.584 Y75.080 E0.12387
G1 X124.388 Y75.080 E0.12621
G1 X123.558 Y74.250 E0.12390
G1 X122.361 Y74.250 E0.12623
G1 X123.192 Y75.080 E0.12394
G1 X121.996 Y75.080 E0.12621
G1 X121.270 Y74.355 E0.10818
G1 X120.284 Y74.565 E0.10641
G1 X120.984 Y75.265 E0.10452
G1 X119.998 Y75.475 E0.10641
G1 X119.297 Y74.774 E0.10452
G1 X118.311 Y74.984 E0.10641
G1 X119.011 Y75.685 E0.10452
G1 X118.025 Y75.894 E0.10641
G1 X117.324 Y75.194 E0.10452
G1 X116.338 Y75.404 E0.10641
G1 X117.038 Y76.104 E0.10452
G1 X116.052 Y76.314 E0.10641
G1 X115.366 Y75.628 E0.10227
G1 X114.539 Y75.997 E0.09559
G1 X115.168 Y76.626 E0.09390
G1 X114.340 Y76.995 E0.09559
G1 X113.711 Y76.365 E0.09390
G1 X112.883 Y76.734 E0.09559
G1 X113.512 Y77.363 E0.09390
G1 X112.685 Y77.732 E0.09559
G1 X112.055 Y77.103 E0.09389
G1 X111.228 Y77.471 E0.09559
G1 X111.857 Y78.100 E0.09389
G1 X111.029 Y78.469 E0.09559
G1 X110.400 Y77.840 E0.09389
G1 X109.572 Y78.208 E0.09559
G1 X110.202 Y78.837 E0.09389
G1 X109.958 Y78.946 E0.02816
G1 X109.469 Y79.301 E0.06373
G1 X108.874 Y78.706 E0.08875
G1 X108.181 Y79.210 E0.09035
G1 X108.776 Y79.804 E0.08875
G1 X108.083 Y80.308 E0.09035
G1 X107.488 Y79.713 E0.08875
G1 X106.796 Y80.216 E0.09035
G1 X107.390 Y80.811 E0.08875
G1 X106.698 Y81.315 E0.09035
G1 X106.103 Y80.720 E0.08875
G1 X105.410 Y81.223 E0.09035
G1 X106.005 Y81.818 E0.08875
G1 X105.312 Y82.321 E0.09035
G1 X104.717 Y81.727 E0.08876
G1 X104.310 Y82.022 E0.05302
G1 X104.076 Y82.282 E0.03692
G1 X104.665 Y82.870 E0.08778
G1 X104.098 Y83.500 E0.08936
G1 X103.510 Y82.911 E0.08778
G1 X102.943 Y83.541 E0.08936
G1 X103.531 Y84.129 E0.08778
G1 X102.964 Y84.759 E0.08936
G1 X102.376 Y84.170 E0.08778
G1 X101.809 Y84.800 E0.08936
G1 X102.398 Y85.388 E0.08778
G1 X101.831 Y86.018 E0.08936
G1 X101.242 Y85.429 E0.08778
G1 X100.676 Y86.059 E0.08936
G1 X101.264 Y86.647 E0.08778
G1 X100.697 Y87.277 E0.08936
G1 X100.109 Y86.688 E0.08778
G1 X99.985 Y86.826 E0.01952
G1 X99.643 Y87.419 E0.07221
G1 X100.251 Y88.027 E0.09075
G1 X99.813 Y88.785 E0.09239
G1 X99.205 Y88.177 E0.09075
G1 X98.767 Y88.935 E0.09239
G1 X99.375 Y89.544 E0.09075
G1 X98.938 Y90.302 E0.09239
G1 X98.329 Y89.694 E0.09075
G1 X97.891 Y90.452 E0.09239
G1 X98.500 Y91.060 E0.09075
G1 X98.062 Y91.819 E0.09239
G1 X97.454 Y91.210 E0.09075
G1 X97.016 Y91.969 E0.09239
G1 X97.624 Y92.577 E0.09075
G1 X97.516 Y92.763 E0.02271
G1 X97.295 Y93.444 E0.07554
G1 X96.636 Y92.785 E0.09838
G1 X96.342 Y93.688 E0.10016
G1 X97.002 Y94.347 E0.09838
G1 X96.708 Y95.250 E0.10016
G1 X96.049 Y94.591 E0.09838
G1 X95.756 Y95.494 E0.10016
G1 X96.415 Y96.153 E0.09838
G1 X96.122 Y97.056 E0.10016
G1 X95.462 Y96.397 E0.09838
G1 X95.169 Y97.299 E0.10016
G1 X95.828 Y97.959 E0.09838
G1 X95.573 Y98.745 E0.08722
G1 X95.558 Y98.885 E0.01483
G1 X94.876 Y98.202 E0.10184
G1 X94.756 Y98.571 E0.04094
G1 X94.688 Y99.211 E0.06789
G1 X95.444 Y99.967 E0.11280
G1 X95.331 Y101.050 E0.11483
G1 X94.575 Y100.294 E0.11279
G1 X94.461 Y101.376 E0.11483
G1 X95.217 Y102.132 E0.11279
G1 X95.103 Y103.215 E0.11483
G1 X94.347 Y102.459 E0.11279
G1 X94.233 Y103.541 E0.11483
G1 X94.989 Y104.297 E0.11279
G1 X94.915 Y105.000 E0.07455
G1 X94.965 Y105.469 E0.04974
G1 X94.120 Y104.624 E0.12610
G1 X94.080 Y105.000 E0.03992
G1 X94.172 Y105.872 E0.09251
G1 X95.105 Y106.806 E0.13929
G1 X95.246 Y108.142 E0.14181
G1 X94.312 Y107.209 E0.13929
G1 X94.453 Y108.546 E0.14180
G1 X95.386 Y109.479 E0.13929
G1 X95.527 Y110.816 E0.14181
