; generated by PrusaSlicer 2.3.1+linux-x64 on 2022-01-20 at 01:45:32 UTC

; 

; external perimeters extrusion width = 1.00mm
; perimeters extrusion width = 1.00mm
; infill extrusion width = 0.90mm
; solid infill extrusion width = 0.90mm
; top infill extrusion width = 0.80mm
; first layer extrusion width = 0.90mm

M73 P0 R150
M73 Q0 S151
M201 X1000 Y1000 Z200 E5000 ; sets maximum accelerations, mm/sec^2
M203 X200 Y200 Z12 E120 ; sets maximum feedrates, mm/sec
M204 P1250 R1250 T1250 ; sets acceleration (P, T) and retract acceleration (R), mm/sec^2
M205 X8.00 Y8.00 Z0.40 E4.50 ; sets the jerk limits, mm/sec
M205 S0 T0 ; sets the minimum extruding and travel feed rate, mm/sec
M107
;TYPE:Custom
M862.3 P "MK3S" ; printer model check
M115 U3.10.0 ; tell printer latest fw version
G90 ; use absolute coordinates
M83 ; extruder relative mode
M104 S225 ; set extruder temp
M140 S60 ; set bed temp
M190 S60 ; wait for bed temp
M109 S225 ; wait for extruder temp
G28 W ; home all without mesh bed level
G80 ; mesh bed leveling
G1 Y-3.0 F1000.0 ; go outside print area
G92 E0.0
G1 X60.0 E9.0 F1000.0 ; intro line
G1 X100.0 E12.5 F1000.0 ; intro line
G92 E0.0
M221 S95
G21 ; set units to millimeters
G90 ; use absolute coordinates
M83 ; use relative distances for extrusion
M900 K0.01 ; Filament gcode LA 1.5
; ; Filament gcode LA 1.0
;LAYER_CHANGE
;Z:0.3
;HEIGHT:0.3
;BEFORE_LAYER_CHANGE
G92 E0.0
;0.3


G1 E-1.00000 F2100.000
G1 Z0.400 F10800.000
;AFTER_LAYER_CHANGE
;0.3
G1 X95.195 Y83.345
G1 Z0.300
G1 E1.00000 F2100.000
M204 S1000
;TYPE:Skirt
;WIDTH:0.9
G1 F1200.000
G1 X100.348 Y77.622 E0.80274
G1 X106.579 Y73.095 E0.80270
G1 X113.597 Y69.968 E0.80073
G1 X121.130 Y68.363 E0.80272
G1 X128.455 Y68.339 E0.76345
G1 X129.219 Y68.417 E0.08005
G1 X136.343 Y69.948 E0.75944
G1 X143.063 Y72.912 E0.76546
G1 X143.722 Y73.288 E0.07904
G1 X149.274 Y77.321 E0.71531
G1 X149.936 Y77.905 E0.09193
G1 X154.817 Y83.361 E0.76292
G1 X158.672 Y90.051 E0.80474
G1 X161.041 Y97.364 E0.80119
G1 X161.823 Y104.628 E0.76146
M73 Q0 S150
G1 X161.823 Y105.377 E0.07804
G1 X161.032 Y112.679 E0.76549
G1 X158.648 Y120.002 E0.80272
G1 X154.805 Y126.655 E0.80069
G1 X149.637 Y132.391 E0.80475
G1 X143.421 Y136.905 E0.80070
G1 X136.385 Y140.038 E0.80273
G1 X128.851 Y141.640 E0.80273
G1 X121.168 Y141.642 E0.80071
G1 X113.616 Y140.038 E0.80471
G1 X106.596 Y136.915 E0.80072
G1 X100.359 Y132.388 E0.80323
G1 X95.435 Y126.953 E0.76446
G1 X94.991 Y126.343 E0.07854
G1 X91.360 Y120.020 E0.75997
G1 X89.068 Y113.048 E0.76494
G1 X88.901 Y112.265 E0.08341
G1 X88.176 Y105.362 E0.72338
G1 X88.178 Y104.618 E0.07754
G1 X88.968 Y97.321 E0.76495
G1 X91.352 Y89.998 E0.80272
G1 X95.135 Y83.449 E0.78818
; printing object bottle-holder-generic-24oz.stl id:0 copy 0
;WIPE_START
G1 F8640.000
G1 X97.878 Y80.383 E-0.95000
;WIPE_END
G1 E-0.05000 F2100.000
G1 Z0.700 F10800.000
G1 X101.137 Y87.663
G1 Z0.300
G1 E1.00000 F2100.000
;TYPE:Perimeter
G1 F1200.000
G1 X105.263 Y83.080 E0.64267
G1 X110.252 Y79.456 E0.64267
G1 X115.885 Y76.948 E0.64268
G1 X121.917 Y75.666 E0.64265
G1 X128.083 Y75.666 E0.64267
G1 X134.115 Y76.948 E0.64267
G1 X139.748 Y79.456 E0.64267
G1 X144.737 Y83.080 E0.64267
G1 X148.863 Y87.663 E0.64267
G1 X151.946 Y93.003 E0.64268
G1 X153.851 Y98.868 E0.64274
G1 X154.496 Y105.000 E0.64259
G1 X153.851 Y111.133 E0.64267
G1 X151.946 Y116.997 E0.64267
G1 X148.863 Y122.337 E0.64267
G1 X144.737 Y126.920 E0.64267
G1 X139.748 Y130.544 E0.64267
G1 X134.115 Y133.052 E0.64267
G1 X128.083 Y134.334 E0.64267
G1 X121.917 Y134.334 E0.64267
G1 X115.885 Y133.052 E0.64267
G1 X110.252 Y130.544 E0.64267
G1 X105.263 Y126.920 E0.64267
G1 X101.137 Y122.337 E0.64267
G1 X98.054 Y116.997 E0.64268
G1 X96.149 Y111.132 E0.64274
G1 X95.504 Y105.000 E0.64260
G1 X96.149 Y98.867 E0.64267
G1 X98.054 Y93.003 E0.64267
G1 X101.077 Y87.767 E0.63016
G1 X101.801 Y88.185 F10800.000
;TYPE:External perimeter
G1 F1200.000
G1 X105.826 Y83.705 E0.62764
G1 X110.672 Y80.184 E0.62437
G1 X116.145 Y77.747 E0.62438
G1 X122.005 Y76.501 E0.62435
G1 X127.995 Y76.501 E0.62437
G1 X133.855 Y77.747 E0.62436
G1 X139.328 Y80.184 E0.62436
G1 X144.174 Y83.705 E0.62437
G1 X148.183 Y88.157 E0.62436
G1 X151.178 Y93.345 E0.62437
G1 X153.029 Y99.043 E0.62443
G1 X153.656 Y105.000 E0.62429
G1 X153.029 Y110.958 E0.62436
G1 X151.178 Y116.655 E0.62436
G1 X148.183 Y121.843 E0.62436
G1 X144.174 Y126.295 E0.62436
G1 X139.328 Y129.816 E0.62437
G1 X133.855 Y132.253 E0.62436
G1 X127.995 Y133.499 E0.62436
G1 X122.005 Y133.499 E0.62436
G1 X116.145 Y132.253 E0.62436
G1 X110.672 Y129.816 E0.62436
G1 X105.826 Y126.295 E0.62437
G1 X101.817 Y121.843 E0.62436
G1 X98.822 Y116.655 E0.62437
G1 X96.971 Y110.957 E0.62443
G1 X96.344 Y105.000 E0.62429
G1 X96.971 Y99.042 E0.62436
G1 X98.822 Y93.345 E0.62436
G1 X101.741 Y88.288 E0.60850
G1 X101.475 Y87.454 F10800.000
;WIPE_START
G1 F8640.000
G1 X104.478 Y85.217 E-0.95000
;WIPE_END
G1 E-0.05000 F2100.000
G1 Z0.700 F10800.000
G1 X99.510 Y86.480
G1 Z0.300
G1 E1.00000 F2100.000
;TYPE:Perimeter
G1 F1200.000
G1 X103.917 Y81.585 E0.68652
G1 X109.246 Y77.714 E0.68650
G1 X115.264 Y75.034 E0.68651
G1 X121.707 Y73.665 E0.68651
G1 X128.293 Y73.665 E0.68651
G1 X134.736 Y75.034 E0.68650
G1 X140.754 Y77.714 E0.68651
G1 X146.083 Y81.585 E0.68651
G1 X150.490 Y86.480 E0.68651
G1 X153.784 Y92.185 E0.68651
G1 X155.819 Y98.449 E0.68650
G1 X156.508 Y105.000 E0.68651
G1 X155.819 Y111.551 E0.68651
G1 X153.784 Y117.815 E0.68651
G1 X150.490 Y123.520 E0.68650
G1 X146.083 Y128.415 E0.68652
G1 X140.754 Y132.286 E0.68650
G1 X134.736 Y134.966 E0.68651
G1 X128.293 Y136.335 E0.68651
G1 X121.707 Y136.335 E0.68651
G1 X115.264 Y134.966 E0.68650
G1 X109.246 Y132.286 E0.68651
G1 X103.917 Y128.415 E0.68651
G1 X99.510 Y123.520 E0.68651
G1 X96.216 Y117.815 E0.68651
G1 X94.181 Y111.551 E0.68650
G1 X93.492 Y105.000 E0.68651
G1 X94.181 Y98.449 E0.68651
G1 X96.216 Y92.185 E0.68651
G1 X99.450 Y86.584 E0.67399
G1 X98.726 Y86.166 F10800.000
;TYPE:External perimeter
G1 F1200.000
G1 X98.830 Y85.986 E0.02166
G1 X103.355 Y80.961 E0.70482
G1 X108.826 Y76.986 E0.70481
G1 X115.004 Y74.235 E0.70482
G1 X121.619 Y72.829 E0.70482
G1 X128.381 Y72.829 E0.70482
G1 X134.996 Y74.235 E0.70481
G1 X141.174 Y76.986 E0.70481
G1 X146.645 Y80.961 E0.70481
G1 X151.170 Y85.986 E0.70482
G1 X154.551 Y91.843 E0.70482
G1 X156.641 Y98.274 E0.70481
G1 X157.348 Y105.000 E0.70481
G1 X156.641 Y111.726 E0.70482
G1 X154.551 Y118.157 E0.70481
G1 X151.170 Y124.014 E0.70481
G1 X146.645 Y129.039 E0.70482
G1 X141.174 Y133.014 E0.70481
G1 X134.996 Y135.765 E0.70482
G1 X128.381 Y137.171 E0.70482
G1 X121.619 Y137.171 E0.70482
G1 X115.004 Y135.765 E0.70481
G1 X108.826 Y133.014 E0.70481
G1 X103.355 Y129.039 E0.70481
G1 X98.830 Y124.014 E0.70482
G1 X95.449 Y118.157 E0.70482
G1 X93.359 Y111.726 E0.70481
G1 X92.652 Y105.000 E0.70481
G1 X93.359 Y98.274 E0.70482
G1 X95.449 Y91.843 E0.70481
G1 X98.666 Y86.270 E0.67064
G1 X98.934 Y86.159 F10800.000
;WIPE_START
G1 F8640.000
G1 X98.830 Y85.986 E-0.07570
G1 X101.364 Y83.173 E-0.87430
;WIPE_END
G1 E-0.05000 F2100.000
G1 Z0.700 F10800.000
G1 X150.395 Y86.733
G1 Z0.300
G1 E1.00000 F2100.000
;TYPE:Solid infill
;WIDTH:0.910238
G1 F1200.000
G1 X145.671 Y82.009 E0.70475
M73 P0 R149
G1 X141.297 Y78.831 E0.57042
G1 X152.029 Y89.563 E1.60118
;WIPE_START
G1 F8640.000
G1 X149.120 Y86.654 E-0.95000
;WIPE_END
G1 E-0.05000 F2100.000
G1 Z0.700 F10800.000
G1 X149.338 Y88.068
G1 Z0.300
G1 E1.00000 F2100.000
G1 F1200.000
G1 X152.636 Y91.366 E0.49201
G1 X153.246 Y92.424 E0.12887
G1 X153.607 Y93.534 E0.12310
G1 X151.999 Y91.926 E0.23988
G1 X152.483 Y92.764 E0.10208
G1 X152.888 Y94.011 E0.13836
G1 X154.183 Y95.306 E0.19314
G1 X154.759 Y97.078 E0.19656
G1 X153.464 Y95.783 E0.19315
G1 X154.040 Y97.555 E0.19655
G1 X155.266 Y98.781 E0.18297
G1 X155.406 Y100.118 E0.14180
G1 X154.473 Y99.184 E0.13932
G1 X154.613 Y100.521 E0.14180
G1 X155.547 Y101.455 E0.13932
G1 X155.687 Y102.791 E0.14180
G1 X154.754 Y101.858 E0.13932
G1 X154.894 Y103.194 E0.14180
G1 X155.828 Y104.128 E0.13933
G1 X155.920 Y105.000 E0.09249
G1 X155.880 Y105.376 E0.03993
G1 X155.035 Y104.531 E0.12614
G1 X155.084 Y105.000 E0.04976
G1 X155.010 Y105.703 E0.07454
G1 X155.766 Y106.459 E0.11282
G1 X155.652 Y107.541 E0.11483
G1 X154.896 Y106.785 E0.11282
G1 X154.783 Y107.868 E0.11483
G1 X155.539 Y108.624 E0.11282
G1 X155.425 Y109.706 E0.11483
G1 X154.669 Y108.950 E0.11282
G1 X154.555 Y110.032 E0.11483
G1 X155.311 Y110.789 E0.11282
G1 X155.244 Y111.429 E0.06788
G1 X155.124 Y111.798 E0.04095
G1 X154.441 Y111.115 E0.10187
G1 X154.427 Y111.255 E0.01484
G1 X154.171 Y112.041 E0.08721
G1 X154.831 Y112.701 E0.09840
G1 X154.537 Y113.603 E0.10015
G1 X153.878 Y112.944 E0.09840
G1 X153.584 Y113.847 E0.10015
G1 X154.244 Y114.506 E0.09840
G1 X153.951 Y115.409 E0.10015
G1 X153.291 Y114.750 E0.09840
G1 X152.998 Y115.652 E0.10015
G1 X153.657 Y116.312 E0.09840
G1 X153.364 Y117.215 E0.10015
G1 X152.704 Y116.555 E0.09840
G1 X152.483 Y117.236 E0.07553
G1 X152.375 Y117.423 E0.02271
G1 X152.984 Y118.031 E0.09077
G1 X152.546 Y118.789 E0.09239
G1 X151.938 Y118.181 E0.09077
G1 X151.500 Y118.939 E0.09239
G1 X152.108 Y119.548 E0.09077
G1 X151.670 Y120.306 E0.09239
G1 X151.062 Y119.698 E0.09077
G1 X150.624 Y120.456 E0.09239
G1 X151.232 Y121.065 E0.09077
G1 X150.795 Y121.823 E0.09239
G1 X150.186 Y121.215 E0.09077
G1 X149.748 Y121.973 E0.09239
G1 X150.357 Y122.581 E0.09077
G1 X150.014 Y123.174 E0.07220
G1 X149.891 Y123.312 E0.01952
G1 X149.302 Y122.723 E0.08779
G1 X148.735 Y123.353 E0.08936
G1 X149.324 Y123.941 E0.08779
G1 X148.757 Y124.570 E0.08936
G1 X148.169 Y123.982 E0.08779
G1 X147.602 Y124.611 E0.08936
G1 X148.190 Y125.200 E0.08779
G1 X147.624 Y125.829 E0.08936
G1 X147.035 Y125.241 E0.08779
G1 X146.468 Y125.870 E0.08936
G1 X147.057 Y126.459 E0.08780
G1 X146.490 Y127.088 E0.08936
G1 X145.902 Y126.500 E0.08780
G1 X145.335 Y127.129 E0.08936
G1 X145.923 Y127.718 E0.08780
G1 X145.689 Y127.978 E0.03691
G1 X145.283 Y128.273 E0.05303
G1 X144.688 Y127.678 E0.08877
G1 X143.995 Y128.182 E0.09035
G1 X144.590 Y128.777 E0.08877
G1 X143.897 Y129.280 E0.09035
G1 X143.302 Y128.685 E0.08877
G1 X142.609 Y129.188 E0.09035
G1 X143.204 Y129.783 E0.08877
G1 X142.511 Y130.287 E0.09035
G1 X141.916 Y129.692 E0.08877
G1 X141.223 Y130.195 E0.09035
G1 X141.818 Y130.790 E0.08877
G1 X141.125 Y131.293 E0.09035
G1 X140.530 Y130.698 E0.08877
G1 X140.042 Y131.053 E0.06371
G1 X139.798 Y131.162 E0.02818
G1 X140.427 Y131.792 E0.09391
G1 X139.600 Y132.160 E0.09559
G1 X138.970 Y131.531 E0.09391
G1 X138.143 Y131.899 E0.09559
G1 X138.772 Y132.529 E0.09391
G1 X137.944 Y132.897 E0.09559
G1 X137.315 Y132.268 E0.09391
G1 X136.487 Y132.636 E0.09559
G1 X137.117 Y133.266 E0.09391
G1 X136.289 Y133.634 E0.09559
G1 X135.659 Y133.005 E0.09391
G1 X134.832 Y133.373 E0.09559
G1 X135.461 Y134.003 E0.09391
G1 X134.633 Y134.371 E0.09559
G1 X133.948 Y133.686 E0.10228
G1 X132.961 Y133.895 E0.10640
G1 X133.662 Y134.596 E0.10454
G1 X132.676 Y134.806 E0.10640
G1 X131.975 Y134.105 E0.10454
G1 X130.988 Y134.315 E0.10640
G1 X131.689 Y135.015 E0.10454
G1 X130.702 Y135.225 E0.10640
G1 X130.002 Y134.524 E0.10454
G1 X129.015 Y134.734 E0.10640
G1 X129.716 Y135.435 E0.10454
G1 X128.729 Y135.644 E0.10640
G1 X128.004 Y134.919 E0.10821
G1 X126.808 Y134.919 E0.12620
G1 X127.639 Y135.750 E0.12399
G1 X126.443 Y135.750 E0.12620
G1 X125.612 Y134.919 E0.12399
G1 X124.415 Y134.919 E0.12620
G1 X125.246 Y135.750 E0.12399
G1 X124.050 Y135.750 E0.12620
G1 X123.219 Y134.919 E0.12399
G1 X122.023 Y134.919 E0.12620
G1 X122.854 Y135.750 E0.12399
G1 X121.768 Y135.750 E0.11457
G1 X121.628 Y135.720 E0.01510
G1 X120.549 Y134.641 E0.16097
G1 X119.030 Y134.319 E0.16385
G1 X120.109 Y135.398 E0.16097
G1 X118.590 Y135.075 E0.16385
G1 X117.511 Y133.996 E0.16097
G1 X115.992 Y133.673 E0.16385
G1 X117.071 Y134.752 E0.16097
G1 X115.552 Y134.429 E0.16385
G1 X113.956 Y132.834 E0.23801
G1 X111.800 Y131.874 E0.24902
G1 X113.440 Y133.513 E0.24466
G1 X111.284 Y132.553 E0.24902
G1 X107.621 Y128.890 E0.54649
;WIPE_START
G1 F8640.000
G1 X110.530 Y131.800 E-0.95000
;WIPE_END
G1 E-0.05000 F2100.000
G1 Z0.700 F10800.000
G1 X142.379 Y81.109
G1 Z0.300
G1 E1.00000 F2100.000
G1 F1200.000
G1 X138.716 Y77.447 E0.54646
G1 X136.560 Y76.487 E0.24902
G1 X138.200 Y78.126 E0.24466
G1 X136.043 Y77.166 E0.24902
G1 X134.448 Y75.571 E0.23800
G1 X132.929 Y75.248 E0.16385
G1 X134.008 Y76.327 E0.16097
G1 X132.489 Y76.004 E0.16385
G1 X131.410 Y74.925 E0.16097
G1 X129.891 Y74.602 E0.16385
G1 X130.970 Y75.681 E0.16097
M73 Q0 S149
G1 X129.451 Y75.358 E0.16385
G1 X128.372 Y74.280 E0.16097
G1 X128.232 Y74.250 E0.01509
G1 X127.146 Y74.250 E0.11458
G1 X127.977 Y75.081 E0.12399
G1 X126.781 Y75.081 E0.12620
G1 X125.950 Y74.250 E0.12399
G1 X124.753 Y74.250 E0.12620
G1 X125.584 Y75.081 E0.12399
G1 X124.388 Y75.081 E0.12620
G1 X123.557 Y74.250 E0.12399
G1 X122.361 Y74.250 E0.12620
G1 X123.192 Y75.081 E0.12399
G1 X121.996 Y75.081 E0.12620
G1 X121.271 Y74.356 E0.10821
G1 X120.284 Y74.565 E0.10640
G1 X120.985 Y75.266 E0.10454
G1 X119.998 Y75.476 E0.10641
G1 X119.297 Y74.775 E0.10454
G1 X118.311 Y74.985 E0.10640
G1 X119.012 Y75.685 E0.10454
G1 X118.025 Y75.895 E0.10641
G1 X117.324 Y75.194 E0.10454
G1 X116.338 Y75.404 E0.10640
G1 X117.039 Y76.105 E0.10454
G1 X116.052 Y76.314 E0.10641
G1 X115.366 Y75.629 E0.10228
G1 X114.539 Y75.997 E0.09559
G1 X115.168 Y76.627 E0.09391
G1 X114.340 Y76.995 E0.09559
G1 X113.711 Y76.366 E0.09391
G1 X112.883 Y76.734 E0.09559
G1 X113.513 Y77.364 E0.09391
G1 X112.685 Y77.732 E0.09559
G1 X112.056 Y77.103 E0.09391
G1 X111.228 Y77.471 E0.09559
G1 X111.857 Y78.101 E0.09391
G1 X111.030 Y78.469 E0.09559
G1 X110.400 Y77.840 E0.09391
G1 X109.573 Y78.209 E0.09559
G1 X110.202 Y78.838 E0.09391
G1 X109.958 Y78.947 E0.02817
G1 X109.469 Y79.302 E0.06372
G1 X108.874 Y78.707 E0.08877
G1 X108.182 Y79.210 E0.09035
G1 X108.777 Y79.805 E0.08877
G1 X108.084 Y80.308 E0.09035
G1 X107.489 Y79.713 E0.08877
G1 X106.796 Y80.217 E0.09035
G1 X107.391 Y80.812 E0.08877
G1 X106.698 Y81.315 E0.09035
G1 X106.103 Y80.720 E0.08877
G1 X105.410 Y81.223 E0.09035
G1 X106.005 Y81.818 E0.08877
G1 X105.312 Y82.322 E0.09035
G1 X104.717 Y81.727 E0.08877
G1 X104.311 Y82.022 E0.05302
G1 X104.077 Y82.282 E0.03692
G1 X104.665 Y82.871 E0.08780
G1 X104.098 Y83.500 E0.08936
G1 X103.510 Y82.912 E0.08780
G1 X102.943 Y83.541 E0.08936
G1 X103.532 Y84.130 E0.08780
G1 X102.965 Y84.759 E0.08936
G1 X102.376 Y84.171 E0.08779
G1 X101.810 Y84.800 E0.08936
G1 X102.398 Y85.389 E0.08779
G1 X101.831 Y86.018 E0.08936
G1 X101.243 Y85.430 E0.08779
G1 X100.676 Y86.059 E0.08936
G1 X101.264 Y86.648 E0.08779
G1 X100.698 Y87.277 E0.08936
G1 X100.109 Y86.689 E0.08779
G1 X99.986 Y86.826 E0.01951
G1 X99.643 Y87.419 E0.07221
G1 X100.252 Y88.027 E0.09077
G1 X99.814 Y88.786 E0.09239
G1 X99.205 Y88.177 E0.09077
G1 X98.768 Y88.936 E0.09239
G1 X99.376 Y89.544 E0.09077
G1 X98.938 Y90.302 E0.09239
G1 X98.330 Y89.694 E0.09077
G1 X97.892 Y90.452 E0.09239
G1 X98.500 Y91.061 E0.09077
G1 X98.062 Y91.819 E0.09239
G1 X97.454 Y91.211 E0.09077
G1 X97.016 Y91.969 E0.09239
G1 X97.625 Y92.577 E0.09077
G1 X97.517 Y92.764 E0.02270
G1 X97.296 Y93.445 E0.07554
G1 X96.636 Y92.785 E0.09840
G1 X96.343 Y93.688 E0.10015
G1 X97.002 Y94.348 E0.09840
G1 X96.709 Y95.250 E0.10015
G1 X96.049 Y94.591 E0.09840
G1 X95.756 Y95.494 E0.10015
G1 X96.416 Y96.153 E0.09840
G1 X96.122 Y97.056 E0.10015
G1 X95.463 Y96.397 E0.09840
G1 X95.169 Y97.300 E0.10015
G1 X95.829 Y97.959 E0.09840
G1 X95.573 Y98.745 E0.08720
G1 X95.559 Y98.885 E0.01485
G1 X94.876 Y98.202 E0.10187
G1 X94.756 Y98.571 E0.04094
G1 X94.689 Y99.211 E0.06789
G1 X95.445 Y99.968 E0.11282
G1 X95.331 Y101.050 E0.11483
G1 X94.575 Y100.294 E0.11282
G1 X94.461 Y101.376 E0.11483
G1 X95.217 Y102.133 E0.11282
G1 X95.104 Y103.215 E0.11483
G1 X94.348 Y102.459 E0.11282
G1 X94.234 Y103.541 E0.11483
G1 X94.990 Y104.297 E0.11282
G1 X94.916 Y105.000 E0.07453
G1 X94.965 Y105.469 E0.04976
G1 X94.120 Y104.624 E0.12613
G1 X94.080 Y105.000 E0.03992
G1 X94.172 Y105.872 E0.09250
G1 X95.106 Y106.806 E0.13932
G1 X95.246 Y108.143 E0.14180
G1 X94.313 Y107.209 E0.13932
G1 X94.453 Y108.545 E0.14180
G1 X95.387 Y109.479 E0.13932
G1 X95.527 Y110.816 E0.14180
